X: 26
T:McAlpine's Fusiliers
R:march
C:Dominic Behan
Z:added by Alf 
M:2/4
L:1/8
K:G
g3f|e2 dB|A2 G2|E2 GA|BB3|A3F|G4 -|G2 Bc|d3B|d2 ef|
g2 f2|e3d|ef ed|BA Bd|e4-|e2 Bc|d2 B2|d2 ef|g2 f2|e3d|
ef ed|BA Bd|e4-|e2 ef|g3f|e2 dB|A2 G2|E2 GA|BB3|A3G|G8|]
